packages/icons/svg/Outline/globe.svg

<svg fill="none" height="24" viewBox="0 0 24 24" width="24" xmlns="http://www.w3.org/2000/svg"><path clip-rule="evenodd" d="m14.617 19.5521c1.049-1.498 2.14-3.701 2.358-6.552h2.955c-.383 3.052-2.489 5.57-5.313 6.552zm-10.54802-6.552h2.992c.206 2.862 1.283 5.056 2.346 6.561-2.837-.977-4.953-3.5-5.338-6.561zm5.369-8.571c-1.052 1.498-2.153 3.708-2.373 6.571h-2.996c.386-3.072 2.517-5.603 5.369-6.571zm-.359 6.5707c.306-3.27196 1.98002-5.54996 2.94702-6.60296 1 1.071 2.648 3.328 2.933 6.60296zm.00099 2.0003h5.88203c-.306 3.277-1.984 5.555-2.95 6.608-1.047-1.11-2.65303-3.336-2.93203-6.608zm10.85003-2.0001h-2.952c-.205-2.849-1.27-5.036-2.328-6.539 2.808.99 4.899 3.499 5.28 6.539zm2.07 1c0-5.504-4.471-9.982-9.972-9.998-.004 0-.008-.001-.013-.001-.004 0-.01-.001-.015-.001-5.514 0-10 4.487-10 10 0 5.514 4.486 10 10 10 .006 0 .011-.001.015-.001.002 0 .003.001.005.001.003 0 .006-.002.008-.002 5.501-.015 9.972-4.494 9.972-9.998z" fill="#6b7280" fill-rule="evenodd"/></svg>

<svg width="24" height="24" viewBox="0 0 24 24" fill="none" xmlns="http://www.w3.org/2000/svg">
<g id="Icon/Outline/globe">
<path id="Mask" fill-rule="evenodd" clip-rule="evenodd" d="M14.617 19.552C15.666 18.054 16.757 15.851 16.975 13H19.93C19.547 16.052 17.441 18.57 14.617 19.552ZM4.069 13H7.061C7.267 15.862 8.344 18.056 9.407 19.561C6.57 18.584 4.454 16.061 4.069 13ZM9.438 4.429C8.386 5.927 7.285 8.137 7.065 11H4.069C4.455 7.928 6.586 5.397 9.438 4.429ZM9.079 11C9.385 7.728 11.059 5.45 12.026 4.397C13.026 5.468 14.674 7.725 14.959 11H9.079ZM9.08 13H14.962C14.656 16.277 12.978 18.555 12.012 19.608C10.965 18.498 9.359 16.272 9.08 13ZM19.93 11H16.978C16.773 8.151 15.708 5.964 14.65 4.461C17.458 5.451 19.549 7.96 19.93 11ZM22 12C22 6.496 17.529 2.018 12.028 2.002C12.024 2.002 12.02 2.001 12.015 2.001C12.011 2.001 12.005 2 12 2C6.486 2 2 6.487 2 12C2 17.514 6.486 22 12 22C12.006 22 12.011 21.999 12.015 21.999C12.017 21.999 12.018 22 12.02 22C12.023 22 12.026 21.998 12.028 21.998C17.529 21.983 22 17.504 22 12Z" fill="#000000"/>
</g>
</svg>
